!!!OTL: ES FREIT EIN WILDER WASSERMANN
!!!ARE: Europa, Mitteleuropa, Deutschland, Schlesien, Hainau; Liegnitz
!!!SCT: E0001
!!!YEM: Copyright 1995, estate of Helmut Schaffrath.
**kern
*ICvox
*Ivox
*M2/4
*k[b-]
*F:
{8c
=1
8f
8f
8f
8g
=2
8a
8g
4f}
=3
{8a
8a
8a
8b-
=4
8.cc
16b-
8a}
{8f
=5
4ff
16ff
16ee
8dd
=6
4cc
8r}
{8cc
=7
8dd
8b-
8g
8b-
=8
8cc
8a
8f}
{8g
=9
8a
8cc
8b-
8g
=10
4f
8r}
{8cc
=11
8dd
8b-
8g
8b-
=12
8cc
8a
8f}
{8g
=13
8a
8cc
8b-
8g
=14
4f
8r}
==
!!!AGN: Sage, Maerchen -, Zauber - Lied, Ballade ?
!!!ONB: ESAC (Essen Associative Code) Database: ERK1
!!!AMT: simple duple
!!!AIN: vox
!!!EED: Helmut Schaffrath
!!!EEV: 1.0
*-
